img/squaresmall-close.svg

<svg xmlns='http://www.w3.org/2000/svg' width='16' height='16' viewBox='0 0 16 16'><path d='M13,13H3V3h10V13z M12,4H4v8h8V4z'/><path d='M5 6.5l1.5-1.5 4.5 4.5-1.5 1.5z'/><path d='M9.5 5l1.5 1.5-4.5 4.5-1.5-1.5z'/></svg>

<svg xmlns='http://www.w3.org/2000/svg' width='16' height='16' viewBox='0 0 16 16'><path d='M13 13H3V3h10v10zm-1-9H4v8h8V4z'/><path d='M5 6.5L6.5 5 11 9.5 9.5 11z'/><path d='M9.5 5L11 6.5 6.5 11 5 9.5z'/></svg>
